src/images/svg/symbols/xtz-usd.svg

<svg width="33" height="32" viewBox="0 0 33 32" fill="none" xmlns="http://www.w3.org/2000/svg">
<path d="M2.11328 11C2.11328 6.02944 6.14272 2 11.1133 2C16.0838 2 20.1133 6.02944 20.1133 11C20.1133 15.9706 16.0838 20 11.1133 20C6.14272 20 2.11328 15.9706 2.11328 11Z" fill="#2C7DF7"/>
<path d="M11.9789 16.0625C11.2562 16.0625 10.7293 15.8883 10.3969 15.5407C10.0893 15.2458 9.91071 14.8415 9.90054 14.4157C9.89672 14.286 9.9266 14.1583 9.98761 14.0439C10.0442 13.9453 10.1262 13.8633 10.2247 13.8061C10.4573 13.6898 10.7306 13.6898 10.9632 13.8061C11.0618 13.8627 11.1431 13.9447 11.199 14.0439C11.2613 14.1576 11.2925 14.286 11.2893 14.4157C11.2956 14.5708 11.2512 14.7233 11.1628 14.8504C11.0891 14.954 10.9836 15.0316 10.8622 15.0703C10.981 15.2216 11.1488 15.3258 11.337 15.3665C11.5473 15.4275 11.7647 15.4587 11.984 15.46C12.2738 15.4625 12.5579 15.3773 12.7988 15.2165C13.0486 15.0398 13.2348 14.7875 13.3302 14.4964C13.4509 14.15 13.51 13.7858 13.5043 13.4191C13.5138 13.0371 13.4496 12.6564 13.3143 12.2991C13.2126 12.0131 13.02 11.7684 12.7651 11.6032C12.5287 11.4538 12.2541 11.375 11.9745 11.3769C11.7304 11.3979 11.4952 11.4773 11.2893 11.6095L10.7815 11.8644V11.6095L13.0645 8.54724H9.8999V11.7252C9.891 11.9547 9.95138 12.1809 10.0741 12.3754C10.1942 12.5477 10.3963 12.6443 10.6054 12.6303C10.7961 12.6265 10.9798 12.5616 11.1304 12.4453C11.3014 12.3201 11.4501 12.1669 11.5702 11.9928C11.581 11.9623 11.6007 11.9356 11.6274 11.9172C11.6484 11.8987 11.6757 11.8886 11.7037 11.8886C11.7584 11.8936 11.8105 11.9159 11.8524 11.9521C11.9052 12.0112 11.9338 12.0881 11.9331 12.1669C11.9268 12.2203 11.9172 12.2731 11.9045 12.3252C11.792 12.5972 11.6039 12.8311 11.3617 12.9989C11.1374 13.1508 10.8717 13.2316 10.6003 13.2303C9.91515 13.2303 9.44101 13.0955 9.1766 12.8254C8.90267 12.5241 8.76093 12.125 8.78445 11.7182V8.54661H7.17578V7.95614H8.79271V6.60996L8.4228 6.23941V5.9375H9.49694L9.90054 6.14661V7.95614L14.0801 7.94343L14.4965 8.36102L11.9331 10.9364C12.0882 10.8741 12.2509 10.8347 12.4175 10.8195C12.7461 10.8341 13.067 10.9256 13.3543 11.0871C13.6867 11.2447 13.9664 11.4951 14.1609 11.8072C14.335 12.0716 14.4583 12.3659 14.5251 12.6754C14.5797 12.9195 14.6083 13.1686 14.6121 13.4191C14.614 13.8964 14.5054 14.368 14.2956 14.797C14.0967 15.2121 13.7617 15.547 13.3467 15.746C12.9208 15.9557 12.453 16.0638 11.9789 16.0625Z" fill="white"/>
<path d="M12.1133 21C12.1133 16.0294 16.1427 12 21.1133 12C26.0838 12 30.1133 16.0294 30.1133 21C30.1133 25.9706 26.0838 30 21.1133 30C16.1427 30 12.1133 25.9706 12.1133 21Z" fill="white"/>
<path fill-rule="evenodd" clip-rule="evenodd" d="M20.7326 12C18.9993 12.0999 17.3987 12.6903 16.0656 13.6331H26.4516C25.1184 12.6903 23.5178 12.0999 21.7845 12H21.5076H20.7326ZM14.3057 15.2657C13.893 15.7672 13.5355 16.3149 13.2382 16.8987L24.0605 16.8988H29.279C28.9816 16.3151 28.6244 15.7673 28.2114 15.2658L24.2144 15.2657H14.3057ZM12.1504 20.1809C12.1995 19.6202 12.3008 19.0747 12.4486 18.5483H29.7656C29.9135 19.0746 30.0147 19.6202 30.064 20.1809H12.1504ZM12.1538 21.8143C12.2059 22.3753 12.3109 22.9208 12.4617 23.4469H29.7527C29.9037 22.9208 30.0085 22.3752 30.0606 21.8143H12.1538ZM14.1925 26.7129C13.7747 26.212 13.412 25.6642 13.1102 25.08H24.4614L29.1041 25.08C28.8023 25.6643 28.4396 26.212 28.0218 26.7129H23.6433L14.1925 26.7129ZM20.7266 29.969L20.7539 29.97L20.7811 29.971C20.8894 29.9749 20.9979 29.9775 21.1071 29.9775C23.0138 29.9775 24.7805 29.3734 26.2356 28.3463L23.3454 28.3462H15.9788C17.3363 29.3046 18.9657 29.8945 20.7266 29.969Z" fill="#F44336"/>
<path d="M20.922 12.0046C16.3131 12.0984 12.5566 15.6569 12.1523 20.1834H20.9221V12.0046H20.922Z" fill="#283991"/>
<path d="M13.9129 17.0851L14.05 17.5061H14.4939L14.1348 17.7664L14.2719 18.1877L13.9129 17.9273L13.5541 18.1877L13.691 17.7664L13.332 17.5061H13.7759L13.9129 17.0851Z" fill="#EFEFEF"/>
<path d="M13.9129 18.5725L14.05 18.9938H14.4939L14.1348 19.2541L14.2719 19.6754L13.9129 19.4149L13.5541 19.6754L13.691 19.2541L13.332 18.9938H13.7759L13.9129 18.5725Z" fill="#EFEFEF"/>
<path d="M15.4037 14.8534L15.5408 15.2746H15.9846L15.6255 15.5351L15.7626 15.9561L15.4037 15.6959L15.0447 15.9561L15.1818 15.5351L14.8226 15.2746H15.2665L15.4037 14.8534Z" fill="#EFEFEF"/>
<path d="M15.4037 16.3411L15.5408 16.7623H15.9846L15.6255 17.0224L15.7626 17.4438L15.4037 17.1836L15.0447 17.4438L15.1818 17.0224L14.8226 16.7623H15.2665L15.4037 16.3411Z" fill="#EFEFEF"/>
<path d="M15.4037 17.8288L15.5408 18.2501H15.9846L15.6255 18.5101L15.7626 18.9314L15.4037 18.671L15.0447 18.9314L15.1818 18.5101L14.8226 18.2501H15.2665L15.4037 17.8288Z" fill="#EFEFEF"/>
<path d="M12.7811 18.9314L12.6439 18.5101L13.003 18.2499H12.5593L12.5493 18.2192C12.5006 18.3696 12.4566 18.5218 12.416 18.6756L12.4223 18.671L12.7811 18.9314Z" fill="#EFEFEF"/>
<path d="M13.5541 16.7001L13.9129 16.4396L14.2719 16.7001L14.1348 16.2788L14.4938 16.0183H14.0499L13.9128 15.5973L13.7758 16.0183H13.6122C13.5818 16.0642 13.5524 16.1104 13.5229 16.157L13.691 16.2788L13.5541 16.7001Z" fill="#EFEFEF"/>
<path d="M15.4037 14.2082L15.7626 14.4684L15.6256 14.0474L15.9844 13.787H15.7281C15.5104 13.9494 15.3003 14.1213 15.0985 14.3026L15.0444 14.4684L15.4037 14.2082Z" fill="#EFEFEF"/>
<path d="M16.5355 13.7247L16.8946 13.4643L17.2534 13.7247L17.1164 13.3034L17.4752 13.0432H17.0315L17.0128 12.9865C16.8625 13.0632 16.7136 13.143 16.5682 13.2279L16.6724 13.3034L16.5355 13.7247Z" fill="#EFEFEF"/>
<path d="M16.8945 14.1097L17.0316 14.5306H17.4754L17.1163 14.7911L17.2534 15.2124L16.8945 14.9519L16.5355 15.2124L16.6726 14.7911L16.3134 14.5306H16.7573L16.8945 14.1097Z" fill="#EFEFEF"/>
<path d="M16.8945 15.5974L17.0316 16.0183H17.4754L17.1163 16.2788L17.2534 16.7001L16.8945 16.4396L16.5355 16.7001L16.6726 16.2788L16.3134 16.0183H16.7573L16.8945 15.5974Z" fill="#EFEFEF"/>
<path d="M16.8945 17.0851L17.0316 17.5061H17.4754L17.1163 17.7664L17.2534 18.1877L16.8945 17.9273L16.5355 18.1877L16.6726 17.7664L16.3134 17.5061H16.7573L16.8945 17.0851Z" fill="#EFEFEF"/>
<path d="M16.8945 18.5725L17.0316 18.9938H17.4754L17.1163 19.2541L17.2534 19.6754L16.8945 19.4149L16.5355 19.6754L16.6726 19.2541L16.3134 18.9938H16.7573L16.8945 18.5725Z" fill="#EFEFEF"/>
<path d="M18.3853 13.3658L18.5224 13.7869H18.9662L18.6073 14.0474L18.7442 14.4684L18.3853 14.2082L18.0262 14.4684L18.1634 14.0474L17.8043 13.7869H18.2481L18.3853 13.3658Z" fill="#EFEFEF"/>
<path d="M18.3853 14.8534L18.5224 15.2746H18.9662L18.6073 15.5351L18.7442 15.9561L18.3853 15.6959L18.0262 15.9561L18.1634 15.5351L17.8043 15.2746H18.2481L18.3853 14.8534Z" fill="#EFEFEF"/>
<path d="M18.3853 16.3411L18.5224 16.7623H18.9662L18.6073 17.0224L18.7442 17.4438L18.3853 17.1836L18.0262 17.4438L18.1634 17.0224L17.8043 16.7623H18.2481L18.3853 16.3411Z" fill="#EFEFEF"/>
<path d="M18.3853 17.8288L18.5224 18.2501H18.9662L18.6073 18.5101L18.7442 18.9314L18.3853 18.671L18.0262 18.9314L18.1634 18.5101L17.8043 18.2501H18.2481L18.3853 17.8288Z" fill="#EFEFEF"/>
<path d="M19.8762 12.6221L20.0132 13.0432H20.457L20.098 13.3034L20.235 13.7247L19.8762 13.4642L19.517 13.7247L19.6542 13.3034L19.2951 13.0432H19.7388L19.8762 12.6221Z" fill="#EFEFEF"/>
<path d="M19.8762 14.1097L20.0132 14.5306H20.457L20.098 14.7911L20.235 15.2124L19.8762 14.9519L19.517 15.2124L19.6542 14.7911L19.2951 14.5306H19.7388L19.8762 14.1097Z" fill="#EFEFEF"/>
<path d="M19.8762 15.5974L20.0132 16.0183H20.457L20.098 16.2788L20.235 16.7001L19.8762 16.4396L19.517 16.7001L19.6542 16.2788L19.2951 16.0183H19.7388L19.8762 15.5974Z" fill="#EFEFEF"/>
<path d="M19.8762 17.0851L20.0132 17.5061H20.457L20.098 17.7664L20.235 18.1877L19.8762 17.9273L19.517 18.1877L19.6542 17.7664L19.2951 17.5061H19.7388L19.8762 17.0851Z" fill="#EFEFEF"/>
<path d="M19.8762 18.5725L20.0132 18.9938H20.457L20.098 19.2541L20.235 19.6754L19.8762 19.4149L19.517 19.6754L19.6542 19.2541L19.2951 18.9938H19.7388L19.8762 18.5725Z" fill="#EFEFEF"/>
</svg>

<svg width="33" height="32" fill="none" xmlns="http://www.w3.org/2000/svg"><path d="M2.113 11a9 9 0 1 1 18 0 9 9 0 0 1-18 0Z" fill="#2C7DF7"/><path d="M11.979 16.063c-.723 0-1.25-.175-1.582-.522a1.612 1.612 0 0 1-.496-1.125.742.742 0 0 1 .087-.372.65.65 0 0 1 .237-.238.825.825 0 0 1 .738 0c.099.057.18.139.236.238a.736.736 0 0 1 .09.372.71.71 0 0 1-.126.434.59.59 0 0 1-.3.22.824.824 0 0 0 .474.296c.21.062.428.093.647.094.29.002.574-.083.815-.244.25-.176.436-.428.531-.72.12-.346.18-.71.174-1.077a2.956 2.956 0 0 0-.19-1.12 1.38 1.38 0 0 0-.549-.696 1.462 1.462 0 0 0-.79-.226c-.245.02-.48.1-.686.232l-.508.255v-.255l2.284-3.062H9.9v3.178c-.009.23.051.456.174.65a.6.6 0 0 0 .531.255.887.887 0 0 0 .525-.185c.171-.125.32-.278.44-.452.011-.03.03-.057.057-.076a.116.116 0 0 1 .077-.028.265.265 0 0 1 .148.063c.053.06.082.136.081.215a1.322 1.322 0 0 1-.028.158 1.53 1.53 0 0 1-.543.674c-.225.152-.49.233-.762.231-.685 0-1.159-.135-1.423-.405a1.516 1.516 0 0 1-.393-1.107V8.547H7.176v-.59h1.617V6.61l-.37-.37v-.303h1.074l.404.21v1.81l4.18-.014.415.418-2.563 2.575c.155-.062.318-.101.485-.117.328.015.649.107.936.268.333.158.612.408.807.72.174.265.297.559.364.868.055.244.083.494.087.744a3.11 3.11 0 0 1-.316 1.378c-.2.415-.534.75-.95.949-.425.21-.893.318-1.367.316Z" fill="#fff"/><path d="M12.113 21a9 9 0 1 1 18 0 9 9 0 0 1-18 0Z" fill="#fff"/><path fill-rule="evenodd" clip-rule="evenodd" d="M20.733 12c-1.734.1-3.334.69-4.667 1.633h10.386A8.956 8.956 0 0 0 21.784 12H20.733Zm-6.427 3.266a8.985 8.985 0 0 0-1.068 1.633H29.28a8.978 8.978 0 0 0-1.068-1.633H14.306ZM12.15 20.18c.05-.56.15-1.106.299-1.633h17.317c.148.527.249 1.072.298 1.633H12.15Zm.004 1.633c.052.561.157 1.107.308 1.633h17.29a8.897 8.897 0 0 0 .309-1.633H12.154Zm2.039 4.899a8.99 8.99 0 0 1-1.083-1.633h15.994a8.987 8.987 0 0 1-1.082 1.633H14.193Zm6.534 3.256.027.001.027.001a8.86 8.86 0 0 0 5.455-1.625H15.979a8.859 8.859 0 0 0 4.748 1.623Z" fill="#F44336"/><path d="M20.922 12.005a8.991 8.991 0 0 0-8.77 8.178h8.77v-8.178Z" fill="#283991"/><path d="m13.913 17.085.137.421h.444l-.36.26.138.422-.36-.26-.358.26.137-.422-.359-.26h.444l.137-.42ZM13.913 18.573l.137.42h.444l-.36.261.138.421-.36-.26-.358.26.137-.42-.359-.261h.444l.137-.421ZM15.404 14.853l.137.422h.444l-.36.26.138.421-.36-.26-.358.26.137-.42-.36-.261h.445l.137-.422ZM15.404 16.341l.137.421h.444l-.36.26.138.422-.36-.26-.358.26.137-.422-.36-.26h.445l.137-.42ZM15.404 17.829l.137.421h.444l-.36.26.138.421-.36-.26-.358.26.137-.42-.36-.26h.445l.137-.422ZM12.781 18.931l-.137-.42.359-.261h-.444l-.01-.03c-.048.15-.092.302-.133.456l.006-.005.36.26ZM13.554 16.7l.359-.26.359.26-.137-.421.359-.26h-.444l-.137-.422-.137.421h-.164l-.09.139.169.122-.137.421ZM15.404 14.208l.359.26-.137-.42.358-.261h-.256a8.943 8.943 0 0 0-.63.516l-.054.165.36-.26ZM16.535 13.725l.36-.26.358.26-.137-.422.36-.26h-.444l-.02-.056c-.15.076-.298.156-.444.24l.104.076-.137.422ZM16.895 14.11l.137.42h.443l-.359.261.137.421-.358-.26-.36.26.138-.42-.36-.261h.444l.137-.421ZM16.895 15.597l.137.421h.443l-.359.26.137.422-.358-.26-.36.26.138-.421-.36-.26h.444l.137-.422ZM16.895 17.085l.137.421h.443l-.359.26.137.422-.358-.26-.36.26.138-.422-.36-.26h.444l.137-.42ZM16.895 18.573l.137.42h.443l-.359.261.137.421-.358-.26-.36.26.138-.42-.36-.261h.444l.137-.421ZM18.385 13.366l.137.42h.444l-.359.261.137.421-.359-.26-.359.26.137-.42-.359-.261h.444l.137-.421ZM18.385 14.853l.137.422h.444l-.359.26.137.421-.359-.26-.359.26.137-.42-.359-.261h.444l.137-.422ZM18.385 16.341l.137.421h.444l-.359.26.137.422-.359-.26-.359.26.137-.422-.359-.26h.444l.137-.42ZM18.385 17.829l.137.421h.444l-.359.26.137.421-.359-.26-.359.26.137-.42-.359-.26h.444l.137-.422ZM19.876 12.622l.137.421h.444l-.359.26.137.422-.359-.26-.359.26.137-.422-.359-.26h.444l.137-.42ZM19.876 14.11l.137.42h.444l-.359.261.137.421-.359-.26-.359.26.137-.42-.359-.261h.444l.137-.421ZM19.876 15.597l.137.421h.444l-.359.26.137.422-.359-.26-.359.26.137-.421-.359-.26h.444l.137-.422ZM19.876 17.085l.137.421h.444l-.359.26.137.422-.359-.26-.359.26.137-.422-.359-.26h.444l.137-.42ZM19.876 18.573l.137.42h.444l-.359.261.137.421-.359-.26-.359.26.137-.42-.359-.261h.444l.137-.421Z" fill="#EFEFEF"/></svg>
